X: 1
T: Sugarloaf Schoolhouse
C: Jerry Holland 1988
R: reel
B: J.Holland Book 1 p.51
Z: 2020 John Chambers <jc:trillian.mit.edu>
M: C|
L: 1/8
K: Edor
F |\
"Em"EFGB {B}e2ef | "G"gfeg "D"Tfe^de | "Em"EFGB {B}e2Bc | "D"{c}d2AF "Em"E/E/E E :|
D |\
"Em"B,EGE B,EGE | "D"D/D/D FD ADFD | "Em"B,EGE "G"BEGE | "D"FDBA "Em"GE-~E2 |
"Em"B,EGE B,EGE | "D"D/D/D (3(FED) ADFD | "D"afTge Tfdec | "Bm"dBAF "Em"E/E/E E |]
